X:1
T:My Boy Tommy, O!
M:4/4
L:1/8
K:C
 D3/2 E/2 F3/2 G/2 A3/2 G/2 c2| G2 G2 E3/2 D/2 C2| D3/2 E/2 F3/2 G/2 A3/2 G/2 c3/2 A/2|\
 A3/2 d/2 d3/2 c/2 A3/2 d/2 d2| c3/2 d/2 e3/2 d/2 c3/2 A/2 d2| c3/2 A/2 G3/2 F/2 E3/2 D/2 C2|\
 D3/2 E/2 F3/2 G/2 A2 A3/2 E/2| E3/2 G/2 G3/2 E/2 E3/2 D/2 D2|
